X: 4
T: An Feochan
R: polka
M: 2/4
L: 1/8
K: Edor
E3-E2F {G}E3|B3-B2B A2B {G}E3|d9|Bcd-d3B/c/d2|e3-e2fd3-d2f|e6-e2B|g3-g2B|f3-f2B|eB2-B3-B2B|g3f2eB2-B2A|G6-G2B|F6-F2B|E3E9:||:e2e3dB3|b9|e3e3-edB|d6-def|e3-e2f edB|g6-g2B|f6-f2B|e9f|e2dB2c|d3d6|e2E4F2|G9|e3B6BAG|F6-F2B|E3E9:|


Tune 5182	Setting 5182

